;FLAVOR:Marlin
;TIME:8031
;Filament used: 5.34125m
;Layer height: 0.16
;MINX:97.718
;MINY:43.704
;MINZ:0.24
;MAXX:196.266
;MAXY:125.243
;MAXZ:4.55
;Generated with Cura_SteamEngine 5.2.1
M140 S60
M105
M190 S60
M104 S210
M105
M109 S210
M82 ;absolute extrusion mode
M201 X500.00 Y500.00 Z100.00 E5000.00 ;Setup machine max acceleration
M203 X500.00 Y500.00 Z10.00 E50.00 ;Setup machine max feedrate
M204 P500.00 R1000.00 T500.00 ;Setup Print/Retract/Travel acceleration
M205 X8.00 Y8.00 Z0.40 E5.00 ;Setup Jerk
M220 S100 ;Reset Feedrate
M221 S100 ;Reset Flowrate

G28 ;Home

G92 E0 ;Reset Extruder
G1 Z2.0 F3000 ;Move Z Axis up
G1 X10.1 Y20 Z0.28 F5000.0 ;Move to start position
G1 X10.1 Y200.0 Z0.28 F1500.0 E15 ;Draw the first line
G1 X10.4 Y200.0 Z0.28 F5000.0 ;Move to side a little
G1 X10.4 Y20 Z0.28 F1500.0 E30 ;Draw the second line
G92 E0 ;Reset Extruder
G1 Z2.0 F3000 ;Move Z Axis up

G92 E0
G92 E0
G1 F2700 E-5
;LAYER_COUNT:21
;LAYER:-4
M107
G0 F9000 X100.479 Y47.643 Z0.24
;TYPE:SUPPORT-INTERFACE
G1 F2700 E0
G1 F1125 X100.424 Y47.972 E0.02663
G1 X100.401 Y48.367 E0.05821
G1 X100.4 Y56.359 E0.69617
G1 X100.422 Y56.753 E0.72767
G1 X100.478 Y57.087 E0.7547
G1 X100.54 Y57.348 E0.77611
G1 X100.699 Y57.792 E0.81376
G1 X100.891 Y58.183 E0.84853
G1 X101.089 Y58.477 E0.87683
G1 X101.321 Y58.777 E0.9071
G1 X101.605 Y59.05 E0.93854
G1 X101.921 Y59.31 E0.97121
G1 X102.379 Y59.581 E1.01369
G1 X102.699 Y59.721 E1.04157
G1 X102.944 Y59.804 E1.06222
G1 X103.187 Y59.871 E1.08234
G1 X103.601 Y59.945 E1.11591
G1 X103.978 Y59.967 E1.14606
G1 X124.369 Y59.97 E2.77375
G1 X125.208 Y60.039 E2.84095
G1 X125.822 Y60.176 E2.89117
G1 X126.511 Y60.426 E2.94968
G1 X127.077 Y60.716 E3.00044
G1 X127.66 Y61.11 E3.05661
G1 X128.171 Y61.564 E3.11118
G1 X128.606 Y62.06 E3.16384
G1 X128.988 Y62.624 E3.21821
G1 X129.308 Y63.26 E3.27505
G1 X129.535 Y63.9 E3.32925
G1 X129.677 Y64.56 E3.38314
G1 X129.736 Y65.231 E3.43691
G1 X129.709 Y65.925 E3.49235
G1 X129.591 Y66.62 E3.54862
G1 X129.398 Y67.253 E3.60145
G1 X129.119 Y67.88 E3.65623
G1 X128.777 Y68.442 E3.70874
G1 X128.336 Y68.999 E3.76545
G1 X127.841 Y69.478 E3.82044
G1 X127.303 Y69.882 E3.87414
G1 X126.703 Y70.225 E3.92931
G1 X126.091 Y70.476 E3.98211
G1 X114.915 Y74.279 E4.92447
G1 X114.251 Y74.535 E4.98127
G1 X113.559 Y74.858 E5.04223
G1 X112.988 Y75.183 E5.09468
G1 X112.407 Y75.57 E5.1504
G1 X111.789 Y76.047 E5.21272
G1 X111.196 Y76.599 E5.27739
G1 X110.726 Y77.106 E5.33257
G1 X110.31 Y77.624 E5.38561
G1 X109.925 Y78.181 E5.43966
G1 X109.536 Y78.845 E5.50109
G1 X109.213 Y79.501 E5.55945
G1 X108.943 Y80.185 E5.61815
G1 X108.748 Y80.818 E5.67103
G1 X98.844 Y117.785 E8.72596
G1 X98.794 Y118.147 E8.75513
G1 X98.768 Y118.515 E8.78458
G1 X98.796 Y118.915 E8.81659
G1 X98.883 Y119.393 E8.85537
G1 X98.954 Y119.643 E8.87612
G1 X99.083 Y119.986 E8.90537
G1 X99.276 Y120.353 E8.93847
G1 X99.425 Y120.584 E8.96041
G1 X99.58 Y120.787 E8.9808
G1 X99.85 Y121.095 E9.01349
G1 X100.226 Y121.408 E9.05255
G1 X100.603 Y121.656 E9.08857
G1 X100.996 Y121.844 E9.12334
G1 X101.266 Y121.943 E9.1463
G1 X101.565 Y122.03 E9.17116
G1 X109.356 Y124.116 E9.81497
G1 X109.722 Y124.167 E9.84447
G1 X109.977 Y124.185 E9.86488
G1 X110.301 Y124.185 E9.89074
G1 X110.646 Y124.144 E9.91847
G1 X111.13 Y124.034 E9.95809
G1 X111.516 Y123.902 E9.99066
G1 X111.932 Y123.684 E10.02815
G1 X112.162 Y123.535 E10.05002
G1 X112.365 Y123.382 E10.07031
G1 X112.565 Y123.204 E10.09169
G1 X112.789 Y122.979 E10.11703
G1 X112.988 Y122.726 E10.14272
G1 X113.132 Y122.519 E10.16285
G1 X113.268 Y122.284 E10.18453
G1 X113.429 Y121.945 E10.21448
G1 X113.575 Y121.522 E10.2502
G1 X120.392 Y96.083 E12.3525
G1 X120.68 Y95.136 E12.43151
G1 X120.842 Y94.682 E12.46999
G1 X121.117 Y94.013 E12.52773
G1 X121.241 Y93.742 E12.55152
G1 X121.588 Y93.053 E12.6131
G1 X121.815 Y92.65 E12.65002
G1 X122.219 Y91.999 E12.71118
G1 X122.644 Y91.391 E12.7704
G1 X123.109 Y90.799 E12.83049
G1 X123.596 Y90.244 E12.88943
G1 X123.804 Y90.025 E12.91354
G1 X124.352 Y89.493 E12.9745
G1 X124.904 Y89.005 E13.03332
G1 X125.707 Y88.354 E13.11583
G1 X126.821 Y87.511 E13.22735
G1 X127.687 Y86.904 E13.31177
G1 X128.9 Y86.116 E13.42723
G1 X129.783 Y85.588 E13.50936
G1 X131.037 Y84.897 E13.62365
G1 X132 Y84.413 E13.70968
G1 X133.062 Y83.921 E13.80311
G1 X134.263 Y83.415 E13.90714
G1 X135.567 Y82.926 E14.01831
G1 X136.738 Y82.536 E14.11683
G1 X137.923 Y82.189 E14.21539
G1 X138.943 Y81.927 E14.29946
G1 X140.354 Y81.618 E14.41476
G1 X141.394 Y81.43 E14.49912
G1 X142.605 Y81.252 E14.59683
G1 X143.807 Y81.118 E14.69337
G1 X145.229 Y81.016 E14.80717
G1 X146.476 Y80.975 E14.90677
G1 X147.702 Y80.978 E15.00463
G1 X148.786 Y81.017 E15.09122
G1 X150.193 Y81.117 E15.20382
G1 X151.411 Y81.254 E15.30165
G1 X152.621 Y81.432 E15.39928
G1 X153.661 Y81.621 E15.48366
G1 X155.072 Y81.93 E15.59896
G1 X156.089 Y82.193 E15.68281
G1 X157.277 Y82.542 E15.78165
G1 X158.446 Y82.932 E15.88002
G1 X159.582 Y83.356 E15.97681
G1 X160.789 Y83.855 E16.08107
G1 X162.043 Y84.433 E16.19129
G1 X163.141 Y84.992 E16.28964
G1 X164.231 Y85.597 E16.38915
G1 X165.114 Y86.125 E16.47128
G1 X166.323 Y86.911 E16.58639
G1 X167.192 Y87.52 E16.6711
G1 X168.307 Y88.365 E16.78277
G1 X169.289 Y89.17 E16.88413
G1 X169.664 Y89.507 E16.92438
G1 X170.21 Y90.041 E16.98534
G1 X170.695 Y90.567 E17.04245
G1 X171.196 Y91.181 E17.10571
G1 X171.629 Y91.776 E17.16445
G1 X171.792 Y92.018 E17.18774
G1 X172.195 Y92.666 E17.24865
G1 X172.422 Y93.071 E17.28572
G1 X172.766 Y93.756 E17.3469
G1 X172.889 Y94.028 E17.37073
G1 X173.163 Y94.7 E17.42866
G1 X173.324 Y95.148 E17.46666
G1 X173.413 Y95.423 E17.48973
G1 X173.612 Y96.096 E17.54576
G1 X180.434 Y121.551 E19.64939
G1 X180.616 Y122.066 E19.69299
G1 X180.805 Y122.415 E19.72467
G1 X181.013 Y122.73 E19.7548
G1 X181.211 Y122.98 E19.78026
G1 X181.43 Y123.201 E19.8051
G1 X181.731 Y123.458 E19.83669
G1 X181.992 Y123.64 E19.86209
G1 X182.283 Y123.801 E19.88864
G1 X182.597 Y123.942 E19.91611
G1 X182.969 Y124.071 E19.94754
G1 X183.353 Y124.144 E19.97874
G1 X183.697 Y124.185 E20.0064
G1 X184.024 Y124.185 E20.0325
G1 X184.279 Y124.167 E20.05291
G1 X184.528 Y124.132 E20.07298
G1 X184.795 Y124.077 E20.09474
G1 X192.567 Y121.997 E20.73697
G1 X192.99 Y121.849 E20.77274
G1 X193.358 Y121.682 E20.805
G1 X193.689 Y121.468 E20.83646
G1 X194.064 Y121.166 E20.8749
G1 X194.29 Y120.945 E20.90013
G1 X194.495 Y120.695 E20.92594
G1 X194.682 Y120.429 E20.95189
G1 X194.945 Y119.933 E20.9967
G1 X195.067 Y119.571 E21.0272
G1 X195.166 Y119.208 E21.05723
G1 X195.224 Y118.729 E21.09575
G1 X195.224 Y118.519 E21.11251
G1 X195.224 Y118.401 E21.12193
G1 X195.206 Y118.148 E21.14218
G1 X195.171 Y117.897 E21.16241
G1 X195.113 Y117.617 E21.18523
G1 X185.254 Y80.819 E24.22621
G1 X185.065 Y80.205 E24.27749
G1 X184.788 Y79.504 E24.33765
G1 X184.473 Y78.86 E24.39488
G1 X184.137 Y78.273 E24.44887
G1 X183.688 Y77.624 E24.51187
G1 X183.274 Y77.107 E24.56474
G1 X182.747 Y76.54 E24.62653
G1 X182.24 Y76.075 E24.68144
G1 X181.684 Y75.634 E24.73809
G1 X181.013 Y75.186 E24.8025
G1 X180.357 Y74.817 E24.86258
G1 X179.89 Y74.596 E24.90382
G1 X179.655 Y74.495 E24.92424
G1 X179.109 Y74.287 E24.97087
G1 X167.897 Y70.471 E25.91628
G1 X167.15 Y70.149 E25.98121
G1 X166.546 Y69.778 E26.0378
G1 X166.044 Y69.375 E26.08918
G1 X165.544 Y68.858 E26.1466
G1 X165.142 Y68.318 E26.20033
G1 X164.799 Y67.711 E26.25599
G1 X164.556 Y67.117 E26.30722
G1 X164.377 Y66.462 E26.36142
G1 X164.28 Y65.764 E26.41767
G1 X164.273 Y65.091 E26.4714
G1 X164.352 Y64.405 E26.52652
G1 X164.516 Y63.739 E26.58127
G1 X164.757 Y63.122 E26.63415
G1 X165.085 Y62.51 E26.68957
G1 X165.483 Y61.952 E26.74428
G1 X165.947 Y61.453 E26.79868
G1 X166.451 Y61.031 E26.85115
G1 X167.072 Y60.634 E26.90998
G1 X167.64 Y60.365 E26.96015
G1 X168.286 Y60.149 E27.01452
G1 X168.967 Y60.015 E27.06993
G1 X169.639 Y59.97 E27.12369
G1 X189.963 Y59.969 E28.74604
G1 X190.389 Y59.946 E28.78009
G1 X190.715 Y59.892 E28.80647
G1 X190.964 Y59.831 E28.82693
G1 X191.205 Y59.756 E28.84708
G1 X191.439 Y59.662 E28.86721
G1 X191.676 Y59.548 E28.8882
G1 X192.008 Y59.359 E28.9187
G1 X192.42 Y59.032 E28.96069
G1 X192.669 Y58.776 E28.98919
G1 X192.98 Y58.392 E29.02864
G1 X193.18 Y58.045 E29.06061
G1 X193.3 Y57.797 E29.0826
G1 X193.429 Y57.463 E29.11118
G1 X193.523 Y57.084 E29.14235
G1 X193.579 Y56.746 E29.1697
G1 X193.599 Y56.372 E29.1996
G1 X193.599 Y48.382 E29.83739
G1 X193.576 Y47.974 E29.87001
G1 X193.521 Y47.643 E29.8968
G1 X193.413 Y47.225 E29.93126
G1 X193.283 Y46.905 E29.95883
G1 X193.173 Y46.68 E29.97882
G1 X192.989 Y46.371 E30.00753
G1 X192.838 Y46.162 E30.02811
G1 X192.582 Y45.866 E30.05935
G1 X192.294 Y45.593 E30.09103
G1 X191.978 Y45.367 E30.12204
G1 X191.677 Y45.19 E30.14991
G1 X191.321 Y45.025 E30.18123
G1 X191.046 Y44.928 E30.20451
G1 X190.715 Y44.845 E30.23175
G1 X190.392 Y44.792 E30.25788
G1 X190.025 Y44.771 E30.28722
G1 X104.038 Y44.77 E37.15108
G1 X103.609 Y44.792 E37.18537
G1 X103.287 Y44.846 E37.21143
G1 X102.862 Y44.955 E37.24645
G1 X102.574 Y45.069 E37.27118
G1 X102.322 Y45.191 E37.29353
G1 X101.985 Y45.383 E37.32449
G1 X101.684 Y45.618 E37.35497
G1 X101.482 Y45.801 E37.37673
G1 X101.229 Y46.071 E37.40626
G1 X101.01 Y46.374 E37.43611
G1 X100.803 Y46.713 E37.46781
G1 X100.646 Y47.075 E37.49931
G1 X100.562 Y47.318 E37.51983
G1 X100.479 Y47.643 E37.54661
G0 F9000 X101.18 Y46.874
G1 F1125 X113.873 Y59.568 E38.97956
G0 F9000 X111.611 Y59.568
G1 F1125 X100.799 Y48.756 E40.20011
G0 F9000 X100.799 Y51.019
G1 F1125 X109.347 Y59.567 E41.16508
G0 F9000 X107.084 Y59.566
G1 F1125 X100.799 Y53.281 E41.87459
G0 F9000 X100.799 Y55.544
G1 F1125 X104.821 Y59.566 E42.32863
G1 F2700 E37.32863
G0 F9000 X104.821 Y61.034
G0 X116.137 Y61.034
G0 X116.137 Y59.568
G1 F2700 E42.32863
G1 F1125 X102.261 Y45.692 E43.89507
G0 F9000 X104.004 Y45.172
G1 F1125 X118.4 Y59.569 E45.52027
G0 F9000 X120.663 Y59.569
G1 F1125 X106.264 Y45.17 E47.14576
G0 F9000 X108.527 Y45.17
G1 F1125 X122.926 Y59.57 E48.7713
G0 F9000 X125.26 Y59.64
G1 F1125 X110.79 Y45.17 E50.40479
G0 F9000 X113.052 Y45.17
G1 F1125 X148.487 Y80.605 E54.405
G0 F9000 X146.203 Y80.584
G1 F1125 X130.055 Y64.435 E56.22799
G0 F9000 X129.993 Y66.636
G1 F1125 X144.055 Y80.698 E57.81543
G0 F9000 X142.025 Y80.931
G1 F1125 X129.353 Y68.259 E59.24595
G0 F9000 X128.361 Y69.529
G1 F1125 X140.095 Y81.264 E60.57064
G0 F9000 X138.257 Y81.689
G1 F1125 X127.052 Y70.484 E61.83556
G0 F9000 X125.428 Y71.122
G1 F1125 X136.499 Y82.193 E63.08535
G0 F9000 X134.82 Y82.777
G1 F1125 X123.74 Y71.697 E64.33616
G0 F9000 X122.052 Y72.272
G1 F1125 X133.206 Y83.425 E65.59526
G0 F9000 X131.655 Y84.137
G1 F1125 X120.364 Y72.846 E66.86989
G0 F9000 X118.676 Y73.421
G1 F1125 X130.171 Y84.916 E68.16754
G0 F9000 X128.738 Y85.746
G1 F1125 X116.988 Y73.996 E69.49398
G0 F9000 X115.3 Y74.571
G1 F1125 X127.367 Y86.638 E70.85621
G0 F9000 X126.054 Y87.587
G1 F1125 X113.702 Y75.236 E72.25055
G0 F9000 X112.335 Y76.131
G1 F1125 X124.787 Y88.583 E73.65624
G0 F9000 X123.602 Y89.661
G1 F1125 X111.162 Y77.221 E75.06058
G0 F9000 X110.192 Y78.514
G1 F1125 X122.545 Y90.867 E76.45509
G0 F9000 X121.62 Y92.204
G1 F1125 X109.436 Y80.021 E77.83047
G0 F9000 X108.909 Y81.756
G1 F1125 X120.83 Y93.677 E79.17621
G0 F9000 X120.206 Y95.315
G1 F1125 X108.431 Y83.541 E80.50542
G0 F9000 X107.953 Y85.325
G1 F1125 X119.709 Y97.082 E81.8326
G0 F9000 X119.23 Y98.866
G1 F1125 X107.475 Y87.11 E83.15966
G0 F9000 X106.997 Y88.895
G1 F1125 X118.752 Y100.65 E84.48667
G0 F9000 X118.274 Y102.435
G1 F1125 X106.519 Y90.68 E85.81367
G0 F9000 X106.04 Y92.464
G1 F1125 X117.796 Y104.22 E87.14079
G0 F9000 X117.318 Y106.005
G1 F1125 X105.562 Y94.248 E88.46797
G0 F9000 X105.084 Y96.033
G1 F1125 X116.84 Y107.789 E89.79508
G0 F9000 X116.362 Y109.573
G1 F1125 X104.606 Y97.818 E91.12215
G0 F9000 X104.128 Y99.603
G1 F1125 X115.884 Y111.358 E92.44921
G0 F9000 X115.406 Y113.143
G1 F1125 X103.65 Y101.387 E93.77633
G0 F9000 X103.172 Y103.172
G1 F1125 X114.928 Y114.928 E95.10345
G0 F9000 X114.449 Y116.712
G1 F1125 X102.694 Y104.957 E96.43045
G0 F9000 X102.216 Y106.742
G1 F1125 X113.971 Y118.496 E97.7574
G0 F9000 X113.493 Y120.281
G1 F1125 X101.738 Y108.526 E99.08441
G0 F9000 X101.26 Y110.311
G1 F1125 X112.956 Y122.007 E100.40475
G0 F9000 X111.908 Y123.222
G1 F1125 X100.782 Y112.096 E101.66075
G0 F9000 X100.303 Y113.88
G1 F1125 X110.207 Y123.783 E102.77875
G0 F9000 X107.315 Y123.154
G1 F1125 X99.825 Y115.664 E103.62428
G0 F9000 X99.347 Y117.449
G1 F1125 X104.225 Y122.327 E104.17495
G0 F9000 X101.071 Y121.435
G1 F1125 X99.444 Y119.809 E104.35857
G1 F2700 E99.35857
G0 F9000 X98.026 Y120.208
G0 X98.552 Y121.195
G0 X99.342 Y122.064
G0 X100.289 Y122.691
G0 X101.234 Y123.045
G0 X109.468 Y125.209
G0 X110.606 Y125.223
G0 X111.57 Y125.012
G0 X112.476 Y124.599
G0 X113.318 Y123.941
G0 X150.783 Y82.253
G0 X150.943 Y80.798
G1 F2700 E104.35857
G1 F1125 X115.315 Y45.17 E108.38056
G0 F9000 X117.578 Y45.17
G1 F1125 X153.613 Y81.205 E112.4485
G0 F9000 X156.595 Y81.924
G1 F1125 X119.841 Y45.17 E116.59761
G0 F9000 X122.103 Y45.17
G1 F1125 X160.05 Y83.116 E120.88134
G1 F2700 E115.88134
G0 F9000 X159.487 Y84.466
G0 X163.544 Y86.43
G0 X164.472 Y85.276
G1 F2700 E120.88134
G1 F1125 X124.366 Y45.17 E125.40885
G0 F9000 X126.629 Y45.17
G1 F1125 X193.096 Y111.638 E132.91228
G0 F9000 X193.924 Y114.728
G1 F1125 X173.385 Y94.189 E135.2309
G0 F9000 X174.389 Y97.456
G1 F1125 X194.744 Y117.811 E137.52875
G0 F9000 X194.53 Y119.86
G1 F1125 X175.217 Y100.547 E139.70897
G0 F9000 X176.046 Y103.638
G1 F1125 X193.507 Y121.099 E141.68012
G0 F9000 X191.904 Y121.759
G1 F1125 X176.874 Y106.729 E143.37683
G0 F9000 X177.703 Y109.82
G1 F1125 X190.119 Y122.237 E144.77851
G0 F9000 X188.334 Y122.714
G1 F1125 X178.531 Y112.911 E145.88516
G0 F9000 X179.359 Y116.002
G1 F1125 X186.548 Y123.192 E146.69677
G0 F9000 X184.764 Y123.67
G1 F1125 X180.188 Y119.094 E147.21335
G0 F9000 X181.373 Y122.542
G1 F1125 X181.956 Y123.124 E147.27911
G1 F2700 E142.27911
G0 F9000 X181.042 Y124.27
G0 X181.93 Y124.813
G0 X183.067 Y125.175
G0 X184.182 Y125.243
G0 X185.147 Y125.088
G0 X192.216 Y123.237
G0 X193.707 Y122.693
G0 X194.658 Y122.064
G0 X195.448 Y121.195
G0 X195.974 Y120.208
G0 X196.235 Y119.237
G0 X196.266 Y118.038
G0 X196.188 Y117.608
G0 X193.685 Y108.167
G0 X192.268 Y108.547
G1 F2700 E147.27911
G1 F1125 X128.892 Y45.17 E154.4336
G0 F9000 X131.154 Y45.17
G1 F1125 X191.44 Y105.456 E161.2392
G0 F9000 X190.611 Y102.365
G1 F1125 X133.417 Y45.17 E167.69581
G0 F9000 X135.68 Y45.17
G1 F1125 X189.783 Y99.274 E173.80348
G0 F9000 X188.955 Y96.183
G1 F1125 X137.943 Y45.17 E179.56221
G0 F9000 X140.205 Y45.17
G1 F1125 X188.127 Y93.092 E184.97206
G0 F9000 X187.299 Y90.001
G1 F1125 X168.344 Y71.046 E187.11187
G0 F9000 X171.774 Y72.213
G1 F1125 X186.471 Y86.911 E188.77105
G0 F9000 X185.643 Y83.82
G1 F1125 X175.204 Y73.38 E189.94955
G0 F9000 X178.634 Y74.548
G1 F1125 X184.803 Y80.716 E190.6459
G1 F2700 E185.6459
G0 F9000 X186.059 Y79.834
G0 X184.02 Y61.034
G0 X184.019 Y59.568
G1 F2700 E190.6459
G1 F1125 X169.621 Y45.17 E192.27127
G0 F9000 X167.358 Y45.17
G1 F1125 X181.757 Y59.569 E193.89676
G0 F9000 X179.494 Y59.569
G1 F1125 X165.095 Y45.17 E195.52224
G0 F9000 X162.833 Y45.17
G1 F1125 X177.232 Y59.569 E197.14772
G0 F9000 X174.97 Y59.57
G1 F1125 X160.57 Y45.17 E198.77332
G0 F9000 X158.307 Y45.17
G1 F1125 X172.707 Y59.57 E200.39892
G0 F9000 X170.444 Y59.57
G1 F1125 X156.045 Y45.17 E202.02446
G0 F9000 X153.782 Y45.17
G1 F1125 X168.339 Y59.727 E203.66778
G0 F9000 X166.725 Y60.377
G1 F1125 X151.519 Y45.17 E205.38442
G0 F9000 X149.256 Y45.17
G1 F1125 X165.467 Y61.381 E207.21446
G0 F9000 X164.529 Y62.706
G1 F1125 X146.994 Y45.17 E209.19401
G0 F9000 X144.731 Y45.17
