;FLAVOR:Marlin
;TIME:8089
;Filament used: 5.04715m
;Layer height: 0.16
;MINX:76.561
;MINY:33.021
;MINZ:0.24
;MAXX:216.372
;MAXY:75.275
;MAXZ:15.43
;Generated with Cura_SteamEngine 5.2.1
M140 S60
M105
M190 S60
M104 S210
M105
M109 S210
M82 ;absolute extrusion mode
M201 X500.00 Y500.00 Z100.00 E5000.00 ;Setup machine max acceleration
M203 X500.00 Y500.00 Z10.00 E50.00 ;Setup machine max feedrate
M204 P500.00 R1000.00 T500.00 ;Setup Print/Retract/Travel acceleration
M205 X8.00 Y8.00 Z0.40 E5.00 ;Setup Jerk
M220 S100 ;Reset Feedrate
M221 S100 ;Reset Flowrate

G28 ;Home

G92 E0 ;Reset Extruder
G1 Z2.0 F3000 ;Move Z Axis up
G1 X10.1 Y20 Z0.28 F5000.0 ;Move to start position
G1 X10.1 Y200.0 Z0.28 F1500.0 E15 ;Draw the first line
G1 X10.4 Y200.0 Z0.28 F5000.0 ;Move to side a little
G1 X10.4 Y20 Z0.28 F1500.0 E30 ;Draw the second line
G92 E0 ;Reset Extruder
G1 Z2.0 F3000 ;Move Z Axis up

G92 E0
G92 E0
G1 F2700 E-5
;LAYER_COUNT:79
;LAYER:-4
M107
G0 F9000 X79.855 Y55.969 Z0.24
;TYPE:SUPPORT-INTERFACE
G1 F2700 E0
G1 F1125 X77.799 Y59.708 E0.34061
G1 X77.65 Y60.153 E0.37807
G1 X77.627 Y60.501 E0.40591
G1 X77.663 Y60.788 E0.429
G1 X77.748 Y61.075 E0.45289
G1 X77.937 Y61.394 E0.48249
G1 X78.192 Y61.678 E0.51296
G1 X78.56 Y61.912 E0.54777
G1 X100.557 Y74.008 E2.55163
G1 X100.87 Y74.132 E2.57851
G1 X101.138 Y74.187 E2.60034
G1 X101.473 Y74.21 E2.62715
G1 X172.131 Y74.21 E8.26738
G1 X172.457 Y74.186 E8.29347
G1 X172.787 Y74.131 E8.32017
G1 X173.09 Y74.015 E8.34607
G1 X173.446 Y73.762 E8.38094
G1 X215.821 Y38.802 E12.76608
G1 X216.132 Y38.434 E12.80454
G1 X216.284 Y38.114 E12.83282
G1 X216.358 Y37.807 E12.85802
G1 X216.372 Y37.507 E12.882
G1 X216.32 Y37.176 E12.90874
G1 X216.191 Y36.825 E12.93859
G1 X215.92 Y36.448 E12.97566
G1 X213.555 Y33.582 E13.27227
G1 X213.179 Y33.26 E13.31178
G1 X212.872 Y33.113 E13.33895
G1 X212.55 Y33.035 E13.3654
G1 X212.245 Y33.021 E13.38977
G1 X211.919 Y33.072 E13.41611
G1 X211.564 Y33.206 E13.4464
G1 X211.161 Y33.497 E13.48608
G1 X181.705 Y57.799 E16.53433
G1 X180.893 Y58.345 E16.61243
G1 X180.276 Y58.633 E16.66679
G1 X179.677 Y58.831 E16.71715
G1 X178.952 Y58.97 E16.77607
G1 X178.322 Y59.01 E16.82646
G1 X158.335 Y59.01 E18.42191
G1 X157.855 Y59.096 E18.46084
G1 X157.539 Y59.244 E18.48869
G1 X157.203 Y59.492 E18.52203
G1 X156.778 Y60.048 E18.57789
G1 X156.35 Y60.509 E18.62811
G1 X155.787 Y60.98 E18.6867
G1 X155.251 Y61.322 E18.73745
G1 X154.637 Y61.615 E18.79176
G1 X153.993 Y61.831 E18.84598
G1 X153.312 Y61.965 E18.90138
G1 X152.638 Y62.01 E18.95531
G1 X121.017 Y62.01 E21.47943
G1 X120.618 Y61.994 E21.51131
G1 X119.899 Y61.89 E21.5693
G1 X119.242 Y61.704 E21.6238
G1 X118.662 Y61.462 E21.67397
G1 X118.069 Y61.123 E21.72849
G1 X117.482 Y60.678 E21.78729
G1 X116.997 Y60.197 E21.84182
G1 X116.481 Y59.541 E21.90844
G1 X116.25 Y59.332 E21.93331
G1 X115.969 Y59.165 E21.9594
G1 X115.656 Y59.045 E21.98616
G1 X115.158 Y59.01 E22.02601
G1 X90.373 Y59.01 E24.00446
G1 X89.712 Y58.966 E24.05734
G1 X89.036 Y58.836 E24.11229
G1 X88.436 Y58.64 E24.16267
G1 X87.819 Y58.354 E24.21696
G1 X82.083 Y55.199 E24.73952
G1 X81.618 Y55.043 E24.77867
G1 X81.28 Y55.02 E24.80572
G1 X80.988 Y55.056 E24.8292
G1 X80.7 Y55.141 E24.85317
G1 X80.381 Y55.331 E24.88281
G1 X80.095 Y55.592 E24.91372
G1 X79.855 Y55.969 E24.94939
G0 F9000 X80.58 Y55.69
G1 F1125 X95.856 Y70.966 E26.67388
G1 F2700 E21.67388
G0 F9000 X95.149 Y72.253
G0 X99.991 Y74.916
G0 X100.844 Y73.691
G1 F2700 E26.67388
G1 F1125 X83.696 Y56.543 E28.60969
G0 F9000 X79.702 Y57.075
G1 F1125 X90.829 Y68.201 E29.86575
G1 F2700 E24.86575
G0 F9000 X90.122 Y69.488
G0 X85.095 Y66.723
G0 X85.801 Y65.437
G1 F2700 E29.86575
G1 F1125 X78.899 Y58.535 E30.64491
G0 F9000 X78.116 Y60.014
G1 F1125 X80.774 Y62.672 E30.94496
G1 F2700 E25.94496
G0 F9000 X80.068 Y63.958
G0 X77.672 Y62.608
G0 X77.081 Y62.034
G0 X76.721 Y61.354
G0 X76.561 Y60.474
G0 X76.635 Y59.836
G0 X76.928 Y59.081
G0 X79.176 Y55.054
G0 X79.813 Y54.428
G0 X80.423 Y54.114
G0 X81.303 Y53.954
G0 X81.942 Y54.028
G0 X82.548 Y54.262
G0 X88.812 Y57.643
G0 X88.497 Y59.081
G1 F2700 E30.94496
G1 F1125 X103.225 Y73.809 E32.60759
G0 F9000 X105.488 Y73.809
G1 F1125 X91.088 Y59.409 E34.23318
G0 F9000 X93.35 Y59.409
G1 F1125 X107.751 Y73.809 E35.85884
G0 F9000 X110.013 Y73.809
G1 F1125 X95.613 Y59.409 E37.48443
G0 F9000 X97.876 Y59.409
G1 F1125 X112.276 Y73.809 E39.11003
G0 F9000 X114.539 Y73.809
G1 F1125 X100.139 Y59.409 E40.73563
G0 F9000 X102.401 Y59.409
G1 F1125 X116.802 Y73.809 E42.36128
G0 F9000 X119.064 Y73.809
G1 F1125 X104.665 Y59.41 E43.98676
G0 F9000 X106.927 Y59.41
G1 F1125 X121.327 Y73.809 E45.6123
G0 F9000 X123.59 Y73.809
G1 F1125 X109.19 Y59.41 E47.23784
G0 F9000 X111.453 Y59.41
G1 F1125 X125.852 Y73.809 E48.86333
G0 F9000 X128.115 Y73.809
G1 F1125 X113.716 Y59.41 E50.48881
G1 F2700 E45.48881
G0 F9000 X113.716 Y57.945
G0 X115.636 Y57.976
G0 X116.465 Y58.22
G0 X116.948 Y58.544
G0 X118.638 Y60.222
G0 X118.269 Y61.701
G1 F2700 E50.48881
G1 F1125 X130.378 Y73.809 E51.85572
G0 F9000 X132.641 Y73.809
G1 F1125 X121.241 Y62.409 E53.14265
G0 F9000 X123.503 Y62.409
G1 F1125 X134.903 Y73.809 E54.42958
G0 F9000 X137.166 Y73.809
G1 F1125 X125.766 Y62.409 E55.71651
G0 F9000 X128.029 Y62.409
G1 F1125 X139.429 Y73.809 E57.00344
G0 F9000 X141.692 Y73.809
G1 F1125 X130.292 Y62.409 E58.29037
G0 F9000 X132.554 Y62.409
G1 F1125 X143.954 Y73.809 E59.5773
G0 F9000 X146.217 Y73.809
G1 F1125 X134.817 Y62.409 E60.86424
G0 F9000 X137.079 Y62.409
G1 F1125 X148.48 Y73.809 E62.15122
G0 F9000 X150.743 Y73.809
G1 F1125 X139.342 Y62.409 E63.43821
G0 F9000 X141.605 Y62.409
G1 F1125 X153.005 Y73.809 E64.72514
G0 F9000 X155.268 Y73.809
G1 F1125 X143.867 Y62.409 E66.01213
G0 F9000 X146.13 Y62.409
G1 F1125 X157.531 Y73.809 E67.29911
G0 F9000 X159.794 Y73.809
G1 F1125 X148.393 Y62.409 E68.5861
G0 F9000 X150.656 Y62.409
G1 F1125 X162.056 Y73.809 E69.87303
G0 F9000 X164.319 Y73.809
G1 F1125 X152.901 Y62.392 E71.16194
G0 F9000 X154.767 Y61.995
G1 F1125 X166.582 Y73.809 E72.49566
G0 F9000 X168.845 Y73.809
G1 F1125 X156.197 Y61.162 E73.92342
G0 F9000 X157.307 Y60.01
G1 F1125 X171.107 Y73.809 E75.48123
G0 F9000 X173.086 Y73.525
G1 F1125 X158.97 Y59.409 E77.07476
G0 F9000 X161.233 Y59.409
G1 F1125 X174.333 Y72.51 E78.55366
G0 F9000 X175.573 Y71.487
G1 F1125 X163.495 Y59.409 E79.91713
G0 F9000 X165.758 Y59.409
G1 F1125 X176.812 Y70.463 E81.165
G0 F9000 X178.053 Y69.441
G1 F1125 X168.021 Y59.409 E82.2975
G0 F9000 X170.284 Y59.409
G1 F1125 X179.292 Y68.418 E83.31446
G0 F9000 X180.532 Y67.395
G1 F1125 X172.546 Y59.409 E84.21598
G0 F9000 X174.809 Y59.409
G1 F1125 X181.772 Y66.372 E85.00203
G0 F9000 X183.012 Y65.35
G1 F1125 X177.072 Y59.409 E85.67264
G0 F9000 X179.245 Y59.32
G1 F1125 X184.252 Y64.326 E86.23782
G0 F9000 X185.491 Y63.303
G1 F1125 X180.949 Y58.761 E86.75056
G0 F9000 X182.289 Y57.838
G1 F1125 X186.732 Y62.281 E87.25212
G0 F9000 X187.971 Y61.258
G1 F1125 X183.528 Y56.815 E87.75369
G0 F9000 X184.768 Y55.792
G1 F1125 X189.211 Y60.235 E88.25525
G0 F9000 X190.451 Y59.212
G1 F1125 X186.008 Y54.769 E88.75682
G0 F9000 X187.248 Y53.746
G1 F1125 X191.69 Y58.189 E89.25832
G0 F9000 X192.931 Y57.166
G1 F1125 X188.488 Y52.724 E89.75983
G0 F9000 X189.728 Y51.7
G1 F1125 X194.17 Y56.143 E90.26134
G0 F9000 X195.411 Y55.121
G1 F1125 X190.967 Y50.677 E90.76302
G0 F9000 X192.207 Y49.655
G1 F1125 X196.65 Y54.097 E91.26453
G0 F9000 X197.89 Y53.075
G1 F1125 X193.447 Y48.631 E91.76615
G0 F9000 X194.687 Y47.608
G1 F1125 X199.13 Y52.052 E92.26777
G0 F9000 X200.37 Y51.029
G1 F1125 X195.927 Y46.586 E92.76933
G0 F9000 X197.166 Y45.563
G1 F1125 X201.61 Y50.006 E93.27095
G0 F9000 X202.849 Y48.983
G1 F1125 X198.406 Y44.539 E93.77257
G0 F9000 X199.646 Y43.517
G1 F1125 X204.09 Y47.96 E94.27419
G0 F9000 X205.329 Y46.937
G1 F1125 X200.886 Y42.494 E94.77576
G0 F9000 X202.126 Y41.471
G1 F1125 X206.569 Y45.915 E95.27738
G0 F9000 X207.809 Y44.892
G1 F1125 X203.366 Y40.448 E95.779
G0 F9000 X204.605 Y39.425
G1 F1125 X209.049 Y43.868 E96.28062
G0 F9000 X210.289 Y42.846
G1 F1125 X205.845 Y38.402 E96.7823
G0 F9000 X207.085 Y37.379
G1 F1125 X211.528 Y41.823 E97.28392
G0 F9000 X212.769 Y40.8
G1 F1125 X208.324 Y36.356 E97.78565
G0 F9000 X209.565 Y35.334
G1 F1125 X214.008 Y39.777 E98.28721
G0 F9000 X215.248 Y38.755
G1 F1125 X210.804 Y34.31 E98.78895
G0 F9000 X212.191 Y33.434
G1 F1125 X215.87 Y37.113 E99.20427
G0 F300 X215.87 Y37.113 Z0.4
G0 F9000 X215.188 Y38.804
;TIME_ELAPSED:82.717445
;LAYER:-3
;TYPE:SUPPORT-INTERFACE
G1 F1500 X215.806 Y38.185 E99.22754
G1 X215.543 Y38.511 E99.23868
G1 X215.803 Y38.196 E99.24955
G1 X215.96 Y37.758 E99.26193
G1 X215.944 Y37.482 E99.26929
G1 X211.955 Y41.471 E99.41939
G1 X208.723 Y44.138 E99.53089
G1 X215.837 Y37.023 E99.79861
G1 X215.601 Y36.694 E99.80938
G1 X205.49 Y46.805 E100.18985
G1 X202.257 Y49.472 E100.30137
G1 X215.345 Y36.384 E100.79386
G1 X215.089 Y36.074 E100.80456
G1 X199.025 Y52.139 E101.40906
G1 X195.792 Y54.805 E101.52056
G1 X214.834 Y35.764 E102.23708
G1 X214.578 Y35.454 E102.24778
G1 X192.56 Y57.472 E103.07631
G1 X189.327 Y60.139 E103.18783
G1 X214.323 Y35.143 E104.12841
G1 X214.067 Y34.834 E104.13909
G1 X186.094 Y62.806 E105.19168
G1 X182.862 Y65.473 E105.30318
G1 X213.812 Y34.523 E106.46781
G1 X213.556 Y34.214 E106.47849
G1 X179.63 Y68.139 E107.75509
G1 X176.397 Y70.806 E107.86661
G1 X213.309 Y33.895 E109.25557
G1 X213.003 Y33.635 E109.26626
G1 X173.171 Y73.467 E110.76512
G1 X172.898 Y73.662 E110.77404
G1 X172.68 Y73.743 E110.78023
G1 X172.258 Y73.814 E110.79162
G1 X212.605 Y33.467 E112.30986
G1 X212.512 Y33.433 E112.31249
G1 X212.051 Y33.456 E112.32477
G1 X171.697 Y73.809 E113.84326
G1 X171.131 Y73.809 E113.85832
G1 X209.811 Y35.13 E115.31381
G1 X206.58 Y37.795 E115.42525
G1 X170.566 Y73.809 E116.78044
G1 X170 Y73.809 E116.7955
G1 X203.349 Y40.461 E118.05039
G1 X200.117 Y43.127 E118.16187
G1 X169.434 Y73.809 E119.31644
G1 X168.869 Y73.809 E119.33147
G1 X196.886 Y45.792 E120.38574
G1 X193.655 Y48.458 E120.4972
G1 X168.303 Y73.809 E121.45116
G1 X167.737 Y73.809 E121.46622
G1 X190.424 Y51.123 E122.31991
G1 X187.193 Y53.788 E122.43135
G1 X167.172 Y73.809 E123.18473
G1 X166.606 Y73.809 E123.19979
G1 X183.962 Y56.453 E123.85289
G1 X181.958 Y58.107 E123.92203
G1 X181.286 Y58.563 E123.94364
G1 X166.04 Y73.809 E124.51734
G1 X165.475 Y73.809 E124.53237
G1 X180.208 Y59.075 E125.08678
G1 X179.749 Y59.227 E125.09965
G1 X179.431 Y59.288 E125.10827
G1 X164.909 Y73.809 E125.6547
G1 X164.343 Y73.809 E125.66976
G1 X178.772 Y59.381 E126.2127
G1 X178.168 Y59.419 E126.2288
G1 X163.777 Y73.809 E126.77031
G1 X163.212 Y73.809 E126.78535
G1 X177.612 Y59.409 E127.32721
G1 X177.046 Y59.409 E127.34227
G1 X162.646 Y73.809 E127.88414
G1 X162.08 Y73.809 E127.8992
G1 X176.481 Y59.409 E128.44108
G1 X175.915 Y59.409 E128.45614
G1 X161.515 Y73.809 E128.99801
G1 X160.949 Y73.809 E129.01307
G1 X175.349 Y59.409 E129.55493
G1 X174.784 Y59.409 E129.56997
G1 X160.383 Y73.809 E130.11185
G1 X159.818 Y73.809 E130.12688
G1 X174.218 Y59.409 E130.66875
G1 X173.652 Y59.409 E130.68381
G1 X159.252 Y73.809 E131.22568
G1 X158.686 Y73.809 E131.24074
G1 X173.087 Y59.409 E131.78262
G1 X172.521 Y59.409 E131.79768
G1 X158.121 Y73.809 E132.33955
G1 X157.555 Y73.809 E132.35461
G1 X171.955 Y59.409 E132.89647
G1 X171.389 Y59.409 E132.91153
G1 X156.989 Y73.809 E133.4534
G1 X156.424 Y73.809 E133.46843
G1 X170.824 Y59.409 E134.0103
G1 X170.258 Y59.409 E134.02536
G1 X155.858 Y73.809 E134.56722
G1 X155.292 Y73.809 E134.58228
G1 X169.692 Y59.409 E135.12415
G1 X169.127 Y59.409 E135.13918
G1 X154.726 Y73.809 E135.68106
G1 X154.161 Y73.809 E135.6961
G1 X168.561 Y59.409 E136.23796
G1 X167.995 Y59.409 E136.25302
G1 X153.595 Y73.809 E136.79489
G1 X153.029 Y73.809 E136.80995
G1 X167.43 Y59.409 E137.35183
G1 X166.864 Y59.409 E137.36689
G1 X152.464 Y73.809 E137.90876
G1 X151.898 Y73.809 E137.92382
G1 X166.298 Y59.409 E138.46569
G1 X165.733 Y59.409 E138.48072
G1 X151.332 Y73.809 E139.0226
G1 X150.767 Y73.809 E139.03764
G1 X165.167 Y59.409 E139.5795
G1 X164.601 Y59.409 E139.59456
G1 X150.201 Y73.809 E140.13643
G1 X149.635 Y73.809 E140.15149
G1 X164.036 Y59.409 E140.69337
G1 X163.47 Y59.409 E140.70843
G1 X149.07 Y73.809 E141.2503
G1 X148.504 Y73.809 E141.26536
G1 X162.904 Y59.409 E141.80722
G1 X162.338 Y59.409 E141.82228
G1 X147.938 Y73.809 E142.36415
G1 X147.373 Y73.809 E142.37918
G1 X161.773 Y59.409 E142.92105
G1 X161.207 Y59.409 E142.93611
G1 X146.807 Y73.809 E143.47797
G1 X146.241 Y73.809 E143.49303
G1 X160.641 Y59.409 E144.0349
G1 X160.076 Y59.409 E144.04993
G1 X145.676 Y73.809 E144.5918
G1 X145.11 Y73.809 E144.60686
G1 X159.51 Y59.409 E145.14872
G1 X158.944 Y59.409 E145.16378
G1 X144.544 Y73.809 E145.70565
G1 X143.978 Y73.809 E145.72071
G1 X158.379 Y59.409 E146.26259
G1 X157.964 Y59.485 E146.27382
G1 X157.747 Y59.585 E146.28018
G1 X157.515 Y59.754 E146.28782
G1 X157.199 Y60.147 E146.30123
G1 X157.111 Y60.271 E146.30528
G1 X156.66 Y60.821 E146.3242
G1 X156.63 Y60.792 E146.32532
G1 X156.042 Y61.288 E146.34578
G1 X155.743 Y61.48 E146.35524
G1 X143.413 Y73.809 E146.81919
G1 X142.847 Y73.809 E146.83425
G1 X154.61 Y62.047 E147.27687
G1 X154.065 Y62.227 E147.29214
G1 X153.816 Y62.274 E147.29888
G1 X142.281 Y73.809 E147.73294
G1 X141.716 Y73.809 E147.74797
G1 X153.148 Y62.378 E148.17814
G1 X152.55 Y62.409 E148.19407
G1 X141.15 Y73.809 E148.62305
G1 X140.584 Y73.809 E148.63811
G1 X151.984 Y62.409 E149.06708
G1 X151.419 Y62.409 E149.08212
G1 X140.019 Y73.809 E149.51109
G1 X139.453 Y73.809 E149.52615
G1 X150.853 Y62.409 E149.95513
G1 X150.287 Y62.409 E149.97019
G1 X138.887 Y73.809 E150.39917
G1 X138.322 Y73.809 E150.4142
G1 X149.722 Y62.409 E150.84318
G1 X149.156 Y62.409 E150.85824
G1 X137.756 Y73.809 E151.28722
G1 X137.19 Y73.809 E151.30228
G1 X148.59 Y62.409 E151.73125
G1 X148.025 Y62.409 E151.74629
G1 X136.625 Y73.809 E152.17526
G1 X136.059 Y73.809 E152.19032
G1 X147.459 Y62.409 E152.6193
G1 X146.893 Y62.409 E152.63436
G1 X135.493 Y73.809 E153.06334
G1 X134.927 Y73.809 E153.0784
G1 X146.327 Y62.409 E153.50737
G1 X145.762 Y62.409 E153.52241
G1 X134.362 Y73.809 E153.95138
G1 X133.796 Y73.809 E153.96644
G1 X145.196 Y62.409 E154.39542
G1 X144.63 Y62.409 E154.41048
G1 X133.23 Y73.809 E154.83946
G1 X132.665 Y73.809 E154.85449
G1 X144.065 Y62.409 E155.28347
G1 X143.499 Y62.409 E155.29853
G1 X132.099 Y73.809 E155.72751
G1 X131.533 Y73.809 E155.74257
G1 X142.933 Y62.409 E156.17154
G1 X142.368 Y62.409 E156.18658
G1 X130.968 Y73.809 E156.61555
G1 X130.402 Y73.809 E156.63061
G1 X141.802 Y62.409 E157.05959
G1 X141.236 Y62.409 E157.07465
G1 X129.836 Y73.809 E157.50363
G1 X129.271 Y73.809 E157.51866
G1 X140.671 Y62.409 E157.94764
G1 X140.105 Y62.409 E157.9627
G1 X128.705 Y73.809 E158.39167
G1 X128.139 Y73.809 E158.40674
G1 X139.539 Y62.409 E158.83571
G1 X138.974 Y62.409 E158.85075
G1 X127.574 Y73.809 E159.27972
G1 X127.008 Y73.809 E159.29478
G1 X138.408 Y62.409 E159.72376
G1 X137.842 Y62.409 E159.73882
G1 X126.442 Y73.809 E160.1678
G1 X125.877 Y73.809 E160.18283
G1 X137.277 Y62.409 E160.61181
G1 X136.711 Y62.409 E160.62687
G1 X125.311 Y73.809 E161.05584
G1 X124.745 Y73.809 E161.0709
G1 X136.145 Y62.409 E161.49988
G1 X135.579 Y62.409 E161.51494
G1 X124.179 Y73.809 E161.94392
G1 X123.614 Y73.809 E161.95895
G1 X135.014 Y62.409 E162.38793
G1 X134.448 Y62.409 E162.40299
G1 X123.048 Y73.809 E162.83197
G1 X122.482 Y73.809 E162.84703
G1 X133.882 Y62.409 E163.276
G1 X133.317 Y62.409 E163.29104
G1 X121.917 Y73.809 E163.72001
G1 X121.351 Y73.809 E163.73507
G1 X132.751 Y62.409 E164.16405
G1 X132.185 Y62.409 E164.17911
G1 X120.785 Y73.809 E164.60809
G1 X120.22 Y73.809 E164.62312
G1 X131.62 Y62.409 E165.0521
