;FLAVOR:Marlin
;TIME:9195
;Filament used: 5.58154m
;Layer height: 0.16
;MINX:76.445
;MINY:27.706
;MINZ:0.24
;MAXX:217.557
;MAXY:71.027
;MAXZ:43.55
;Generated with Cura_SteamEngine 5.2.1
M140 S60
M105
M190 S60
M104 S210
M105
M109 S210
M82 ;absolute extrusion mode
M201 X500.00 Y500.00 Z100.00 E5000.00 ;Setup machine max acceleration
M203 X500.00 Y500.00 Z10.00 E50.00 ;Setup machine max feedrate
M204 P500.00 R1000.00 T500.00 ;Setup Print/Retract/Travel acceleration
M205 X8.00 Y8.00 Z0.40 E5.00 ;Setup Jerk
M220 S100 ;Reset Feedrate
M221 S100 ;Reset Flowrate

G28 ;Home

G92 E0 ;Reset Extruder
G1 Z2.0 F3000 ;Move Z Axis up
G1 X10.1 Y20 Z0.28 F5000.0 ;Move to start position
G1 X10.1 Y200.0 Z0.28 F1500.0 E15 ;Draw the first line
G1 X10.4 Y200.0 Z0.28 F5000.0 ;Move to side a little
G1 X10.4 Y20 Z0.28 F1500.0 E30 ;Draw the second line
G92 E0 ;Reset Extruder
G1 Z2.0 F3000 ;Move Z Axis up

G92 E0
G92 E0
G1 F2700 E-5
;LAYER_COUNT:216
;LAYER:-4
M107
G0 F9000 X77.572 Y52.273 Z0.24
;TYPE:SUPPORT-INTERFACE
G1 F2700 E0
G1 F1125 X77.51 Y52.556 E0.02313
G1 X77.52 Y52.92 E0.05219
G1 X77.588 Y53.217 E0.07651
G1 X77.723 Y53.518 E0.10285
G1 X77.948 Y53.829 E0.13349
G1 X78.291 Y54.106 E0.16868
G1 X100.414 Y69.59 E2.32421
G1 X100.731 Y69.788 E2.35404
G1 X101.094 Y69.927 E2.38507
G1 X101.592 Y69.962 E2.42492
G1 X172.25 Y69.961 E8.06515
G1 X172.576 Y69.938 E8.09123
G1 X172.907 Y69.882 E8.11803
G1 X173.201 Y69.772 E8.14309
G1 X173.562 Y69.518 E8.17832
G1 X215.937 Y34.558 E12.56346
G1 X216.253 Y34.188 E12.6023
G1 X216.4 Y33.877 E12.62976
G1 X216.474 Y33.582 E12.65404
G1 X216.482 Y33.42 E12.66699
G1 X216.491 Y33.258 E12.67994
G1 X216.439 Y32.929 E12.70653
G1 X216.312 Y32.583 E12.73595
G1 X216.058 Y32.224 E12.77105
G1 X213.667 Y29.327 E13.07089
G1 X213.298 Y29.012 E13.10962
G1 X212.991 Y28.865 E13.13679
G1 X212.669 Y28.787 E13.16324
G1 X212.364 Y28.773 E13.18761
G1 X212.038 Y28.824 E13.21395
G1 X211.683 Y28.958 E13.24424
G1 X211.329 Y29.209 E13.27888
G1 X181.824 Y53.551 E16.33218
G1 X181.067 Y54.066 E16.40526
G1 X180.395 Y54.385 E16.46464
G1 X179.796 Y54.583 E16.515
G1 X179.071 Y54.722 E16.57393
G1 X178.441 Y54.762 E16.62432
G1 X158.454 Y54.762 E18.21977
G1 X157.974 Y54.848 E18.25869
G1 X157.658 Y54.996 E18.28655
G1 X157.322 Y55.244 E18.31988
G1 X156.897 Y55.8 E18.37575
G1 X156.469 Y56.261 E18.42596
G1 X155.906 Y56.732 E18.48455
G1 X155.37 Y57.074 E18.53531
G1 X154.756 Y57.367 E18.58961
G1 X154.112 Y57.583 E18.64383
G1 X153.431 Y57.717 E18.69924
G1 X152.757 Y57.762 E18.75316
G1 X121.136 Y57.762 E21.27728
G1 X120.737 Y57.746 E21.30916
G1 X120.018 Y57.642 E21.36715
G1 X119.361 Y57.456 E21.42166
G1 X118.781 Y57.214 E21.47182
G1 X118.188 Y56.875 E21.52635
G1 X117.601 Y56.43 E21.58515
G1 X117.116 Y55.949 E21.63967
G1 X116.6 Y55.293 E21.7063
G1 X116.369 Y55.084 E21.73116
G1 X116.088 Y54.917 E21.75725
G1 X115.775 Y54.797 E21.78401
G1 X115.277 Y54.762 E21.82386
G1 X93.631 Y54.762 E23.55174
G1 X93.066 Y54.73 E23.59691
G1 X92.438 Y54.624 E23.64775
G1 X91.739 Y54.412 E23.70606
G1 X91.158 Y54.151 E23.7569
G1 X90.556 Y53.785 E23.81314
G1 X82.349 Y48.041 E24.61277
G1 X81.918 Y47.839 E24.65077
G1 X81.562 Y47.776 E24.67963
G1 X81.246 Y47.784 E24.70486
G1 X80.935 Y47.856 E24.73034
G1 X80.645 Y47.989 E24.75581
G1 X80.335 Y48.21 E24.7862
G1 X80.049 Y48.57 E24.8229
G1 X77.779 Y51.812 E25.13882
G1 X77.572 Y52.273 E25.17916
G0 F9000 X77.999 Y53.109
G1 F1125 X79.011 Y54.121 E25.2934
G0 F9000 X78.553 Y51.401
G1 F1125 X86.551 Y59.399 E26.19629
G1 F2700 E21.19629
G0 F9000 X85.712 Y60.6
G0 X77.317 Y54.687
G0 X76.767 Y53.993
G0 X76.518 Y53.342
G0 X76.455 Y52.451
G0 X76.595 Y51.835
G0 X76.966 Y51.117
G0 X79.467 Y47.592
G0 X80.178 Y47.028
G0 X80.823 Y46.782
G0 X81.714 Y46.719
G0 X82.327 Y46.857
G0 X82.918 Y47.164
G0 X91.144 Y52.898
G0 X90.294 Y54.09
G1 F2700 E26.19629
G1 F1125 X105.765 Y69.561 E27.94279
G0 F9000 X103.502 Y69.561
G1 F1125 X82.755 Y48.814 E30.28489
G0 F9000 X80.421 Y48.742
G1 F1125 X101.212 Y69.534 E32.63201
G1 F2700 E27.63201
G0 F9000 X101.56 Y71.026
G0 X108.028 Y71.027
G0 X108.028 Y69.561
G1 F2700 E32.63201
G1 F1125 X93.628 Y55.162 E34.25755
G0 F9000 X95.891 Y55.162
G1 F1125 X110.29 Y69.561 E35.88304
G0 F9000 X112.553 Y69.561
G1 F1125 X98.154 Y55.162 E37.50852
G0 F9000 X100.416 Y55.162
G1 F1125 X114.816 Y69.561 E39.13406
G0 F9000 X117.079 Y69.561
G1 F1125 X102.679 Y55.162 E40.7596
G0 F9000 X104.942 Y55.162
G1 F1125 X119.341 Y69.561 E42.38508
G0 F9000 X121.604 Y69.561
G1 F1125 X107.205 Y55.162 E44.01057
G0 F9000 X109.467 Y55.162
G1 F1125 X123.867 Y69.561 E45.63611
G0 F9000 X126.13 Y69.561
G1 F1125 X111.73 Y55.162 E47.26165
G0 F9000 X113.993 Y55.162
G1 F1125 X128.392 Y69.561 E48.88713
G0 F9000 X130.655 Y69.561
G1 F1125 X118.713 Y57.619 E50.23525
G0 F9000 X121.518 Y58.161
G1 F1125 X132.918 Y69.561 E51.52218
G0 F9000 X135.181 Y69.561
G1 F1125 X123.781 Y58.161 E52.80911
G0 F9000 X126.043 Y58.161
G1 F1125 X137.443 Y69.56 E54.09598
G0 F9000 X139.705 Y69.56
G1 F1125 X128.306 Y58.161 E55.3828
G0 F9000 X130.569 Y58.161
G1 F1125 X141.968 Y69.56 E56.66962
G0 F9000 X144.231 Y69.56
G1 F1125 X132.832 Y58.161 E57.95643
G0 F9000 X135.094 Y58.161
G1 F1125 X146.494 Y69.56 E59.24331
G0 F9000 X148.756 Y69.56
G1 F1125 X137.357 Y58.161 E60.53013
G0 F9000 X139.62 Y58.161
G1 F1125 X151.019 Y69.56 E61.81694
G0 F9000 X153.282 Y69.56
G1 F1125 X141.883 Y58.161 E63.10376
G0 F9000 X144.145 Y58.161
G1 F1125 X155.545 Y69.56 E64.39064
G0 F9000 X157.807 Y69.56
G1 F1125 X146.408 Y58.161 E65.67745
G0 F9000 X148.671 Y58.161
G1 F1125 X160.07 Y69.56 E66.96427
G0 F9000 X162.333 Y69.56
G1 F1125 X150.934 Y58.161 E68.25109
G0 F9000 X153.169 Y58.134
G1 F1125 X164.596 Y69.56 E69.54101
G0 F9000 X166.858 Y69.56
G1 F1125 X154.994 Y57.697 E70.88027
G0 F9000 X156.402 Y56.842
G1 F1125 X169.121 Y69.56 E72.31604
G0 F9000 X171.384 Y69.56
G1 F1125 X157.496 Y55.673 E73.88378
G0 F9000 X159.248 Y55.162
G1 F1125 X173.298 Y69.212 E75.46987
G0 F9000 X174.54 Y68.191
G1 F1125 X161.51 Y55.162 E76.94075
G0 F9000 X163.773 Y55.162
G1 F1125 X175.779 Y67.168 E78.29609
G0 F9000 X177.019 Y66.145
G1 F1125 X166.036 Y55.162 E79.53595
G0 F9000 X168.299 Y55.162
G1 F1125 X178.259 Y65.122 E80.66032
G0 F9000 X179.499 Y64.099
G1 F1125 X170.561 Y55.162 E81.66926
G0 F9000 X172.824 Y55.162
G1 F1125 X180.739 Y63.076 E82.56272
G0 F9000 X181.978 Y62.053
G1 F1125 X175.087 Y55.162 E83.34063
G0 F9000 X177.35 Y55.162
G1 F1125 X183.219 Y61.031 E84.00317
G0 F9000 X184.458 Y60.007
G1 F1125 X179.499 Y55.048 E84.56299
G0 F9000 X181.176 Y54.462
G1 F1125 X185.698 Y58.985 E85.07353
G0 F9000 X186.938 Y57.962
G1 F1125 X182.495 Y53.518 E85.57515
G0 F9000 X183.735 Y52.496
G1 F1125 X188.178 Y56.939 E86.07671
G0 F9000 X189.418 Y55.916
G1 F1125 X184.974 Y51.473 E86.57833
G0 F9000 X186.214 Y50.449
G1 F1125 X190.657 Y54.893 E87.07995
G0 F9000 X191.898 Y53.87
G1 F1125 X187.454 Y49.427 E87.58158
G0 F9000 X188.694 Y48.404
G1 F1125 X193.137 Y52.847 E88.08314
G0 F9000 X194.377 Y51.825
G1 F1125 X189.933 Y47.381 E88.58482
G0 F9000 X191.173 Y46.357
G1 F1125 X195.617 Y50.802 E89.08655
G0 F9000 X196.857 Y49.778
G1 F1125 X192.413 Y45.335 E89.58817
G0 F9000 X193.653 Y44.312
G1 F1125 X198.097 Y48.756 E90.08985
G0 F9000 X199.336 Y47.733
G1 F1125 X194.892 Y43.289 E90.59153
G0 F9000 X196.133 Y42.266
G1 F1125 X200.577 Y46.71 E91.0932
G0 F9000 X201.816 Y45.687
G1 F1125 X197.372 Y41.243 E91.59488
G0 F9000 X198.612 Y40.22
G1 F1125 X203.057 Y44.665 E92.09667
G0 F9000 X204.296 Y43.641
G1 F1125 X199.851 Y39.197 E92.5984
G0 F9000 X201.091 Y38.174
G1 F1125 X205.536 Y42.618 E93.10014
G0 F9000 X206.776 Y41.596
G1 F1125 X202.331 Y37.151 E93.60193
G0 F9000 X203.571 Y36.128
G1 F1125 X208.015 Y40.573 E94.10366
G0 F9000 X209.256 Y39.55
G1 F1125 X204.811 Y35.105 E94.60545
G0 F9000 X206.05 Y34.082
G1 F1125 X210.495 Y38.527 E95.10724
G0 F9000 X211.736 Y37.504
G1 F1125 X207.29 Y33.059 E95.60909
G0 F9000 X208.53 Y32.036
G1 F1125 X212.975 Y36.481 E96.11088
G0 F9000 X214.215 Y35.458
G1 F1125 X209.77 Y31.013 E96.61267
G0 F9000 X211.009 Y29.99
G1 F1125 X215.455 Y34.436 E97.11457
G0 F9000 X215.692 Y32.41
G1 F1125 X212.448 Y29.166 E97.48078
G1 F2700 E92.48078
G0 F9000 X211.503 Y27.88
G0 X80.645 Y46.828
G0 X79.867 Y47.227
G0 X79.193 Y47.934
G0 X76.806 Y51.377
G0 X76.537 Y52.008
G0 X76.445 Y52.811
G0 X76.584 Y53.583
G0 X76.964 Y54.299
G0 X77.522 Y54.834
G0 X93.252 Y65.878
G0 X94.092 Y64.676
G1 F2700 E97.48078
G1 F1125 X79.485 Y50.07 E99.12969
G0 F300 X79.485 Y50.07 Z0.4
G0 F9000 X79.516 Y50.025
;TIME_ELAPSED:83.854820
;LAYER:-3
;TYPE:SUPPORT-INTERFACE
G1 F1500 X81.343 Y48.198 E99.19844
G1 X81.065 Y48.233 E99.20589
G1 X80.856 Y48.327 E99.21199
G1 X80.61 Y48.503 E99.22004
G1 X80.376 Y48.796 E99.23002
G1 X78.197 Y51.91 E99.33114
G1 X81.852 Y48.255 E99.46868
G1 X82.243 Y48.429 E99.48007
G1 X77.924 Y52.748 E99.64259
G1 X77.915 Y52.865 E99.64571
G1 X78.031 Y53.207 E99.65532
G1 X82.561 Y48.677 E99.82578
G1 X82.894 Y48.91 E99.8366
G1 X78.246 Y53.558 E100.0115
G1 X78.561 Y53.808 E100.0222
G1 X83.226 Y49.143 E100.19774
G1 X83.559 Y49.376 E100.20856
G1 X78.894 Y54.042 E100.38412
G1 X79.227 Y54.274 E100.39492
G1 X83.892 Y49.609 E100.57046
G1 X84.224 Y49.842 E100.58125
G1 X79.56 Y54.507 E100.75677
G1 X79.892 Y54.74 E100.76756
G1 X84.557 Y50.075 E100.94311
G1 X84.89 Y50.307 E100.95391
G1 X80.225 Y54.973 E101.12947
G1 X80.557 Y55.206 E101.14026
G1 X85.223 Y50.541 E101.31582
G1 X85.556 Y50.773 E101.32662
G1 X80.89 Y55.439 E101.5022
G1 X81.223 Y55.671 E101.513
G1 X85.888 Y51.007 E101.68852
G1 X86.221 Y51.239 E101.69932
G1 X81.556 Y55.905 E101.87488
G1 X81.889 Y56.137 E101.88568
G1 X86.554 Y51.472 E102.06122
G1 X86.887 Y51.705 E102.07203
G1 X82.222 Y56.37 E102.24758
G1 X82.554 Y56.603 E102.25837
G1 X87.22 Y51.938 E102.43393
G1 X87.552 Y52.171 E102.44472
G1 X82.887 Y56.836 E102.62026
G1 X83.22 Y57.069 E102.63108
G1 X87.885 Y52.404 E102.80662
G1 X88.218 Y52.637 E102.81743
G1 X83.553 Y57.302 E102.99297
G1 X83.886 Y57.535 E103.00379
G1 X88.55 Y52.87 E103.17931
G1 X88.884 Y53.103 E103.19015
G1 X84.218 Y57.768 E103.36571
G1 X84.551 Y58.001 E103.37652
G1 X89.217 Y53.335 E103.5521
G1 X89.549 Y53.568 E103.56289
G1 X84.883 Y58.234 E103.73847
G1 X85.216 Y58.467 E103.74929
G1 X89.882 Y53.801 E103.92487
G1 X90.214 Y54.034 E103.93566
G1 X85.55 Y58.699 E104.11118
G1 X85.882 Y58.933 E104.12199
G1 X90.559 Y54.256 E104.29798
G1 X90.909 Y54.471 E104.30891
G1 X86.215 Y59.165 E104.48555
G1 X86.547 Y59.399 E104.49635
G1 X91.296 Y54.65 E104.67506
G1 X91.687 Y54.824 E104.68644
G1 X86.88 Y59.631 E104.86733
G1 X87.213 Y59.864 E104.87814
G1 X92.128 Y54.949 E105.06309
G1 X92.321 Y55.009 E105.06847
G1 X92.589 Y55.053 E105.0757
G1 X87.546 Y60.097 E105.26548
G1 X87.879 Y60.33 E105.2763
G1 X93.077 Y55.132 E105.47189
G1 X93.615 Y55.159 E105.48623
G1 X88.211 Y60.563 E105.68958
G1 X88.544 Y60.796 E105.70039
G1 X94.179 Y55.161 E105.91243
G1 X94.745 Y55.161 E105.92749
G1 X88.877 Y61.028 E106.14829
G1 X89.21 Y61.262 E106.15911
G1 X95.31 Y55.161 E106.38867
G1 X95.876 Y55.161 E106.40373
G1 X89.543 Y61.494 E106.64204
G1 X89.876 Y61.727 E106.65286
G1 X96.442 Y55.161 E106.89993
G1 X97.007 Y55.161 E106.91497
G1 X90.208 Y61.96 E107.17081
G1 X90.541 Y62.193 E107.18162
G1 X97.573 Y55.161 E107.44623
G1 X98.139 Y55.161 E107.46129
G1 X90.873 Y62.426 E107.73469
G1 X91.206 Y62.659 E107.74551
G1 X98.705 Y55.161 E108.02767
G1 X99.27 Y55.161 E108.0427
G1 X91.539 Y62.892 E108.33362
G1 X91.872 Y63.125 E108.34443
G1 X99.836 Y55.161 E108.64411
G1 X100.402 Y55.161 E108.65917
G1 X92.205 Y63.358 E108.96762
G1 X92.537 Y63.591 E108.97842
G1 X100.967 Y55.161 E109.29563
G1 X101.533 Y55.161 E109.31069
G1 X92.87 Y63.824 E109.63668
G1 X93.203 Y64.056 E109.64748
G1 X102.099 Y55.161 E109.98221
G1 X102.664 Y55.161 E109.99724
G1 X93.536 Y64.29 E110.34075
G1 X93.869 Y64.522 E110.35154
G1 X103.23 Y55.161 E110.70379
G1 X103.796 Y55.161 E110.71885
G1 X94.201 Y64.756 E111.07991
G1 X94.534 Y64.988 E111.09071
G1 X104.361 Y55.161 E111.46049
G1 X104.927 Y55.161 E111.47555
G1 X94.867 Y65.221 E111.85411
G1 X95.199 Y65.454 E111.8649
G1 X105.493 Y55.161 E112.25224
G1 X106.058 Y55.161 E112.26727
G1 X95.532 Y65.687 E112.66336
G1 X95.865 Y65.92 E112.67418
G1 X106.624 Y55.161 E113.07903
G1 X107.19 Y55.161 E113.09409
G1 X96.198 Y66.153 E113.50772
G1 X96.531 Y66.386 E113.51853
G1 X107.756 Y55.161 E113.94092
G1 X108.321 Y55.161 E113.95596
G1 X96.863 Y66.619 E114.38712
G1 X97.196 Y66.851 E114.39791
G1 X108.887 Y55.161 E114.83782
G1 X109.453 Y55.161 E114.85288
G1 X97.529 Y67.084 E115.30156
G1 X97.862 Y67.317 E115.31237
G1 X110.018 Y55.161 E115.7698
G1 X110.584 Y55.161 E115.78486
G1 X98.195 Y67.55 E116.25105
G1 X98.527 Y67.783 E116.26184
G1 X111.15 Y55.161 E116.73682
G1 X111.715 Y55.161 E116.75185
G1 X98.86 Y68.016 E117.23558
G1 X99.193 Y68.249 E117.2464
G1 X112.281 Y55.161 E117.73889
G1 X112.847 Y55.161 E117.75395
G1 X99.525 Y68.482 E118.25523
G1 X99.859 Y68.715 E118.26607
G1 X113.412 Y55.161 E118.77608
G1 X113.978 Y55.161 E118.79114
G1 X100.191 Y68.948 E119.30994
G1 X100.524 Y69.181 E119.32076
G1 X114.544 Y55.161 E119.84832
G1 X115.109 Y55.161 E119.86336
G1 X100.859 Y69.411 E120.39958
G1 X101.276 Y69.56 E120.41136
G1 X115.65 Y55.186 E120.95225
G1 X115.934 Y55.287 E120.96027
G1 X116.038 Y55.364 E120.96371
G1 X101.84 Y69.562 E121.49797
G1 X102.406 Y69.562 E121.51303
G1 X116.348 Y55.619 E122.03768
G1 X116.597 Y55.936 E122.04841
G1 X102.971 Y69.562 E122.56115
G1 X103.537 Y69.562 E122.57621
G1 X116.848 Y56.251 E123.0771
G1 X117.133 Y56.531 E123.08773
G1 X104.103 Y69.562 E123.57806
G1 X104.668 Y69.562 E123.59309
G1 X117.427 Y56.804 E124.07319
G1 X117.749 Y57.047 E124.08392
G1 X105.234 Y69.562 E124.55486
G1 X105.8 Y69.562 E124.56992
G1 X118.086 Y57.276 E125.03223
G1 X118.444 Y57.483 E125.04324
G1 X106.365 Y69.562 E125.49776
G1 X106.931 Y69.562 E125.51282
G1 X118.828 Y57.665 E125.9605
G1 X119.227 Y57.832 E125.97201
G1 X107.497 Y69.562 E126.41341
G1 X108.062 Y69.562 E126.42844
G1 X119.667 Y57.958 E126.86511
G1 X120.109 Y58.081 E126.87732
G1 X108.628 Y69.562 E127.30935
G1 X109.194 Y69.562 E127.32441
G1 X120.615 Y58.141 E127.75417
G1 X121.16 Y58.161 E127.76868
G1 X109.759 Y69.562 E128.1977
G1 X110.325 Y69.562 E128.21276
G1 X121.726 Y58.161 E128.64177
G1 X122.291 Y58.161 E128.65681
G1 X110.891 Y69.562 E129.0858
G1 X111.456 Y69.562 E129.10084
G1 X122.857 Y58.161 E129.52985
G1 X123.423 Y58.161 E129.54491
G1 X112.022 Y69.562 E129.97392
G1 X112.588 Y69.562 E129.98899
G1 X123.989 Y58.161 E130.418
G1 X124.554 Y58.161 E130.43303
G1 X113.154 Y69.562 E130.86203
G1 X113.719 Y69.562 E130.87706
G1 X125.12 Y58.161 E131.30608
G1 X125.686 Y58.161 E131.32114
G1 X114.285 Y69.562 E131.75015
G1 X114.851 Y69.562 E131.76521
G1 X126.251 Y58.161 E132.19421
G1 X126.817 Y58.161 E132.20927
G1 X115.416 Y69.562 E132.63828
G1 X115.982 Y69.562 E132.65334
G1 X127.383 Y58.161 E133.08236
G1 X127.948 Y58.161 E133.09739
G1 X116.548 Y69.562 E133.52639
G1 X117.113 Y69.562 E133.54142
G1 X128.514 Y58.161 E133.97043
G1 X129.08 Y58.161 E133.98549
G1 X117.679 Y69.562 E134.41451
G1 X118.245 Y69.562 E134.42957
G1 X129.645 Y58.161 E134.85856
G1 X130.211 Y58.161 E134.87362
G1 X118.81 Y69.562 E135.30264
G1 X119.376 Y69.562 E135.3177
G1 X130.777 Y58.161 E135.74671
G1 X131.342 Y58.161 E135.76175
G1 X119.942 Y69.562 E136.19074
G1 X120.507 Y69.562 E136.20578
G1 X131.908 Y58.161 E136.63479
G1 X132.474 Y58.161 E136.64985
G1 X121.073 Y69.562 E137.07887
G1 X121.639 Y69.562 E137.09393
G1 X133.04 Y58.161 E137.52294
G1 X133.605 Y58.161 E137.53797
G1 X122.205 Y69.562 E137.96697
G1 X122.77 Y69.562 E137.982
G1 X134.171 Y58.161 E138.41102
G1 X134.737 Y58.161 E138.42608
G1 X123.336 Y69.562 E138.85509
G1 X123.902 Y69.562 E138.87015
